symbols/web/local_fire_department/materialsymbolsrounded/local_fire_department_gradN25_24px.svg

<svg xmlns="http://www.w3.org/2000/svg" height="24" width="24"><path d="M12 21.925q-3.3 0-5.612-2.312Q4.075 17.3 4.075 14q0-2.775 1.675-5.375t4.575-4.55q.525-.35 1.075-.05.55.3.55.95V6.3q0 .875.6 1.463.6.587 1.475.587.45 0 .85-.188.4-.187.7-.537.2-.225.487-.288.288-.062.538.113 1.575 1.125 2.462 2.862.888 1.738.888 3.688 0 3.3-2.312 5.613-2.313 2.312-5.638 2.312ZM5.95 14q0 1.35.563 2.562.562 1.213 1.612 2.088-.05-.175-.05-.313v-.287q0-.775.3-1.475.3-.7.85-1.25L12 12.575l2.8 2.75q.55.55.85 1.25.3.7.3 1.475 0 .15-.012.287-.013.138-.038.313 1.05-.875 1.612-2.088.563-1.212.563-2.562 0-1.275-.475-2.4t-1.375-2.025q-.5.325-1.062.487-.563.163-1.138.163-1.525 0-2.65-1.037-1.125-1.038-1.3-2.563Q8.05 8.325 7 10.2 5.95 12.075 5.95 14ZM12 15.2l-1.45 1.45q-.3.275-.45.638-.15.362-.15.762 0 .825.6 1.412.6.588 1.45.588t1.463-.588q.612-.587.612-1.412 0-.425-.15-.775-.15-.35-.45-.625Z"/></svg>

<svg xmlns="http://www.w3.org/2000/svg" height="24" width="24"><path d="M12 21.925Q8.7 21.925 6.388 19.613Q4.075 17.3 4.075 14Q4.075 11.225 5.75 8.625Q7.425 6.025 10.325 4.075Q10.85 3.725 11.4 4.025Q11.95 4.325 11.95 4.975V6.3Q11.95 7.175 12.55 7.763Q13.15 8.35 14.025 8.35Q14.475 8.35 14.875 8.162Q15.275 7.975 15.575 7.625Q15.775 7.4 16.062 7.337Q16.35 7.275 16.6 7.45Q18.175 8.575 19.062 10.312Q19.95 12.05 19.95 14Q19.95 17.3 17.638 19.613Q15.325 21.925 12 21.925ZM5.95 14Q5.95 15.35 6.513 16.562Q7.075 17.775 8.125 18.65Q8.075 18.475 8.075 18.337Q8.075 18.2 8.075 18.05Q8.075 17.275 8.375 16.575Q8.675 15.875 9.225 15.325L12 12.575L14.8 15.325Q15.35 15.875 15.65 16.575Q15.95 17.275 15.95 18.05Q15.95 18.2 15.938 18.337Q15.925 18.475 15.9 18.65Q16.95 17.775 17.512 16.562Q18.075 15.35 18.075 14Q18.075 12.725 17.6 11.6Q17.125 10.475 16.225 9.575Q16.225 9.575 16.225 9.575Q16.225 9.575 16.225 9.575Q15.725 9.9 15.163 10.062Q14.6 10.225 14.025 10.225Q12.5 10.225 11.375 9.188Q10.25 8.15 10.075 6.625Q10.075 6.625 10.075 6.625Q10.075 6.625 10.075 6.625Q8.05 8.325 7 10.2Q5.95 12.075 5.95 14ZM12 15.2 10.55 16.65Q10.25 16.925 10.1 17.288Q9.95 17.65 9.95 18.05Q9.95 18.875 10.55 19.462Q11.15 20.05 12 20.05Q12.85 20.05 13.463 19.462Q14.075 18.875 14.075 18.05Q14.075 17.625 13.925 17.275Q13.775 16.925 13.475 16.65Z"/></svg>
